!!!!SEGMENT: pl-sa--562-a-ix-42--001_rossochalski--polonoisse-capricio.krn
!!!cenid: 18xx:350
!!!COM: Rossochalski
!!!COM-rismid: pe41022084
!!!CDT: <1800->1850
!!!CNT: Polish
!!!OTL: Polonoisse Capricio
!!!PDT:
!!!AGN: Secular
!!!SMS-siglum: PL-SA
!!!SMS-shelfmark: 562/A IX 42
!!!SMS-shelfwork: 001 W
!!!SMS-variant:
!!!SMS-altvar:
!!!NIFC-rismid: 1001070624
!!!URL-scan: http://bc.bdsandomierz.pl/dlibra/publication/1318/edition/1286/content
!!!ONB-nifc:
**kern	**dynam	**kern	**dynam
*part1	*	*part1	*part1
*staff2	*	*staff1	*
*I"Piano Forte	*	*	*
*I'pf	*	*	*
*clefF4	*	*clefG2	*
*k[b-]	*	*k[b-]	*
*F:	*	*F:	*
*M3/4	*	*M3/4	*
*A,A,B,B,C,C	*	*A,A,B,B,C,C	*
=1	=1	=1	=1
*A	*	*A	*
!	!	!LO:TX:a:B:t=largo	!
!	!	!LO:TX:a:t=Polonoisse Capricio	!
4DD/ 4D/	.	8.d/L	p
.	.	16f/Jk	.
4FF/ 4F/	.	16e/LL	.
.	.	16d/	.
.	.	16c#X/	.
.	.	16d/JJ	.
4DD/ 4D/	.	8A/L	.
.	.	8A/J	.
=2	=2	=2	=2
4CC#X/ 4C#X/	.	(32A/LLL	.
.	.	32Bn/	.
.	.	32c#X/	.
.	.	32B/JJ)	.
.	.	8A'/J	.
.	.	16qqc#/LL	f
.	.	16qqe/JJ	.
4AAA/ 4AA/	.	8a/L	.
.	.	16e/L	.
.	.	16g#X/JJ	.
4CC#/ 4C#/	.	16a/LL	.
.	.	16gn/	.
.	.	16f/	.
.	.	16e/JJ	.
=3	=3	=3	=3
!	!	!LO:TUP:b	!
4DD/ 4D/	.	24f/LL	.
.	.	24a/	.
.	.	24g#X/	.
.	.	24a/	.
.	.	24f/	.
.	.	24e/JJ	.
4FF/ 4F/	.	8d/L	.
.	.	[8d/J	.
4DD/ 4D/	.	32d/LLL]	.
.	.	(32e/	.
.	.	32f/	.
.	.	32e/	.
.	.	32g#/	.
.	.	32f/	.
.	.	32e/	.
.	.	32d/JJJ)	.
=4	=4	=4	=4
4EE/ 4E/	.	(32d/LLL	.
.	.	32c#X/	.
.	.	32e/	.
.	.	32c#/	.
.	.	32Bn/	.
.	.	32G/	.
.	.	32B-X/	.
.	.	32Bn/JJJ	.
4CC#X/ 4C#X/	.	32cn/LLL	.
.	.	32c#X/	.
.	.	32d/	.
.	.	32d#X/	.
.	.	32e/	.
.	.	32f/	.
.	.	32f#X/	.
.	.	64g/L	.
.	.	64g#X/JJJJ)	.
4AAA/ 4AA/	.	16a/LL	.
.	.	16gn/	.
.	.	16fn/	.
.	.	16e/JJ	.
=5	=5	=5	=5
*^	*	*	*
16rc	4D\	.	(32f/LLL	.
.	.	.	32a/J	.
16F/LL 16A/	.	.	16dd/)	.
16F/ 16A/	.	.	16r	.
16F/JJ 16A/	.	.	16dd`/JJ	.
16rc	4E\	.	(32dd\LLL	.
.	.	.	32cc#X\J	.
16G/LL 16c#X/	.	.	16ee\)	.
16G/ 16c#/	.	.	16r	.
16G/JJ 16c#/	.	.	16ee`\JJ	.
16rc	4F\	.	(32ee\LLL	.
.	.	.	32dd\J	.
16A/LL 16d/	.	.	16ff\)	.
16A/ 16d/	.	.	16r	.
16A/JJ 16d/	.	.	16aa`\JJ	.
*v	*v	*	*	*
=6	=6	=6	=6
!	!	!LO:TUP:a	!
16r	.	24aa\LL	.
.	.	24gg\	.
16G\ 16c#X\ 16e\	.	.	.
.	.	24bb-\	.
16r	.	24gg\	.
.	.	24ff\	.
16F\ 16A\ 16d\	.	.	.
.	.	24aa\JJ	.
!!LO:LB;g=original
!	!	!LO:TUP:a	!
16r	.	24ff\LL	.
.	.	24ee\	.
16E\ 16A\ 16c#\	.	.	.
.	.	24gg\	.
16r	.	24ee\	.
.	.	24dd\	.
16D\ 16A\ 16d\	.	.	.
.	.	24ff\JJ	.
8A\L	.	(8dd\L 8ff\	.
!LO:TX:t=P:problem:mixed beam	!	!	!
8AA/J	.	8cc#X\J) 8ee\	.
=7||:	=7||:	=7||:	=7||:
!	!	!LO:TX:a:t=[segno]	!
16r	.	8a\L 8cc#X\ 8ee\ 8aa\	f
16AA/LL	.	.	.
16C#X/	.	8.a\J 8.cc#\ 8.ee\ 8.aa\	.
16E/JJ	.	.	.
*clefG2	*	*	*
16A/LL	.	.	.
16c#X/	.	16ccc#Xss\LL	.
16e/	.	16eee\	.
16g/JJ	.	16ddd\JJ	.
16a\LL	.	16ccc#\LL	.
16cc#X\J	.	16bb-\	.
8ee\J	.	16aa\	.
.	.	16gg\JJ	.
=8	=8	=8	=8
*	*	*^	*
8ddd\L	.	8ryy	(16ff\LL	.
.	.	.	16dd\)	.
!	!	!	!	!LO:DY:a
8aa\ 8fff\	.	8dd/L	16f\ 16dd\	p
.	.	.	16a\JJ	.
8gg\ 8eee\	.	8ee/	16g\LL	.
.	.	.	16b-\	.
8ff\ 8ddd\	.	8dd/	16f\	.
.	.	.	16a\JJ	.
8ee\ 8ccc#X\	.	8cc#X/	16e\LL	.
.	.	.	16g\	.
8ff\J 8ddd\	.	8dd/J	16f\	.
.	.	.	16a\JJ	.
*	*	*v	*v	*
=9	=9	=9	=9
*clefF4	*	*	*
!	!LO:DY:a	!	!
16r	f	8a\L 8cc#X\ 8ee\ 8aa\	.
16AA/LL	.	.	.
16C#X/	.	8.a\J 8.cc#\ 8.ee\ 8.aa\	.
16E/JJ	.	.	.
*clefG2	*	*	*
16A/LL	.	.	.
16c#X/	.	16ccc#X\LL	.
16e/	.	16eee\	.
16g/JJ	.	16ddd\JJ	.
16a\LL	.	16ccc#\LL	.
16cc#X\J	.	16bb-\	.
8ee\J	.	16aa\	.
.	.	16gg\JJ	.
=10	=10	=10	=10
8ddd\L	.	16ff/LL	.
.	.	16dd/	p
8aa\ 8fff\	.	(16f/ 16dd/	.
.	.	16a/JJ)	.
8gg\ 8eee\	.	(16g/LL 16ee/	.
.	.	16b-/)	.
8ff\ 8ddd\	.	(16f/ 16dd/	.
.	.	16a/JJ)	.
8ee\ 8ccc#X\	.	(16e/LL 16cc#X/	.
.	.	16g/)	.
8ff\J 8ddd\	.	(16f/ 16dd/	.
.	.	16a/JJ)	.
*clefF4	*	*	*
=11	=11	=11	=11
!	!	!	!LO:DY:rj
16r	.	(32a\LLL 32ff\	f
.	.	32aa\JJJ)	.
16BBB-/ 16D/	.	16r	.
16r	.	(32g\LLL 32cc#X\	.
.	.	32ee\JJJ)	.
16EE/ 16E/	.	16r	.
16r	.	(32a\LLL 32dd\	.
.	.	32ff\JJJ)	.
16FF/ 16F/	.	16r	.
16r	.	(32d/LLL 32a/	.
.	.	32ccn/JJJ)	.
16FF#X/ 16F#X/	.	16r	.
16r	.	(32d/LLL 32b-/	.
.	.	32dd/JJJ)	.
16GG/ 16G/	.	16r	.
16r	.	(32c/LLL 32f#X/	.
.	.	32a/JJJ)	.
16AA/ 16A/	.	16r	.
!!LO:LB:g=original
=12	=12	=12	=12
4BB-\ 4B-\	.	8.d/L 8.g/	.
.	.	16b-/Jk	.
4.CC#X/ 4.C#X/	.	4.e/ 4.g/ 4.b-/	ff
8r	.	(32a/LLL	.
.	.	32g/	.
.	.	32f/	.
.	.	32e/JJJ)	.
=13	=13	=13	=13
4AAA/ 4AA/	.	16r	f
.	.	16A/LL 16c#X/ 16a/	.
.	.	16A/ 16c#/ 16a/	.
.	.	16Bn/JJ 16d/ 16bn/	.
4r	.	16c#X/LL 16e/ 16cc#X/	.
.	.	16d/ 16f/ 16dd/	.
.	.	16e/ 16g/ 16ee/	.
.	.	16f/JJ 16a/ 16ff/	.
16r	.	8.g/L 8.b/ 8.gg/	.
16CC#X/KL 16C#X/	.	.	.
8DD/J 8D/	.	.	.
.	.	16f/Jk 16a/ 16ff/	.
=14	=14	=14	=14
8GG/L 8G/	.	16e/LL 16g/ 16ee/	.
.	.	16d/ 16f/ 16dd/	.
8AA/J 8A/	.	16c#X/ 16e/ 16cc#X/	.
.	.	16e/JJ 16g/ 16ee/	.
8r	.	(4e/ 4g/ 4ee/	.
8AAA/ 8AA/	.	.	.
4DD/ 4D/	.	8d'/) 8f/ 8dd/	.
.	.	8r	.
*B	*	*B	*
=15:||:	=15:||:	=15:||:	=15:||:
16FF/LL	.	8.a\L 8.cc\	f
!LO:TX:t=P:problem:mixed	!	!	!
16F\	.	.	.
16E\	.	.	.
16F\JJ	.	16f\Jk 16a\	.
4FF/	.	(16dd\LL 16ff\	.
.	.	16cc\) 16ee\	.
.	.	(16b-\ 16dd\	.
.	.	16a\JJ) 16cc\	.
4r	.	8.a\L 8.cc\	sf
.	.	16g\Jk 16b-\	.
=16	=16	=16	=16
8FF/ 8F/	.	16f\LL 16a\	.
.	.	16ff'\ 16aa\	p
8r	.	16aa'\ 16ccc\	.
.	.	16gg'\JJ 16bb-\	.
4r	.	16ff'\LL 16aa\	.
.	.	16ee'\ 16gg\	.
.	.	16dd'\ 16ff\	.
.	.	16cc'\JJ 16ee\	.
4r	.	16b-'\LL 16dd\	.
.	.	16a'\ 16cc\	.
.	.	16g'\ 16b-\	.
.	.	16f'\JJ 16a\	.
=17	=17	=17	=17
16DD/LL	.	8.f/L 8.a/	f
16D/	.	.	.
16C#X/	.	.	.
16D/JJ	.	16d/Jk 16f/	.
4DD/	.	(16b-/LL 16dd/	.
.	.	16a/) 16cc/	.
.	.	(16g/ 16b-/	.
.	.	16f/JJ) 16a/	.
4r	.	8.f/L 8.a/	sf
.	.	16e/Jk 16g/	.
!	!	!LO:LB:g=original	!
=18	=18	=18	=18
!	!	!LO:TX:t=P:problem:mixed beam	!
8DD\ 8D\	.	16d/LL 16f/	p
.	.	16F<'/ 16A</	.
8r	.	16G<'/ 16B-</	.
.	.	16A<'/JJ 16c#X</	.
4r	.	16B-'/LL 16d/	.
.	.	16c#'/ 16e/	.
.	.	16d'/ 16f/	.
.	.	16e'/JJ 16g/	.
8r	.	8f`/L 8a/	.
8AAA/ 8AA/	.	(16Bn/L 16f/	.
.	.	16a/JJ)	.
=19	=19	=19	=19
*	*	*^	*
8BBB-/L 8BB-/	.	16g/LL	8d\L	.
.	.	16b-/	.	.
8CC/ 8C/	.	16a/	8e\	.
.	.	16cc/JJ	.	.
8DD/ 8D/	.	16b-/LL	8f\	.
.	.	16dd/	.	.
8EE/J 8E/	.	16cc/	8g\J	.
.	.	16b-/JJ	.	.
8FF/L 8F/	.	16a/LL	8c\L	.
.	.	16cc/	.	.
8AA/J 8A/	.	16f/	8c\J	.
.	.	16a/JJ	.	.
=20	=20	=20	=20	=20
8BBB-/L 8BB-/	.	16g/LL	8d\L	.
.	.	16b-/	.	.
8CC/J 8C/	.	16e/ 16B-/	8B-\J	.
.	.	16g/JJ	.	.
*	*	*v	*v	*
8r	.	(4B-/ 4e/ 4g/	.
8CC/L 8C/	.	.	.
8FF/ 8F/	.	8A/) 8f/	.
8EE-X/J 8E-X/	.	8r	.
=21	=21	=21	=21
*	*	*clefF4	*
4DD/ 4D/	.	32r	f
.	.	(32F\LLL	.
.	.	32E\	.
.	.	32F\	.
.	.	32B-\	.
.	.	32F\	.
.	.	32d\	.
.	.	32B-\JJJ)	.
*	*	*clefG2	*
4r	.	(32f/LLL	.
.	.	32d/	.
.	.	32b-/	.
.	.	32f/JJJ	.
.	.	32dd\LLL	.
.	.	32b-\	.
.	.	32ff\	.
.	.	32dd\JJJ	.
4r	.	32bb-\LLL	.
.	.	32ff\	.
.	.	32ddd\	.
.	.	32bb-\	.
.	.	32fff\	.
.	.	32ddd\	.
.	.	32ccc\	.
.	.	32bb-\JJJ)	.
!	!	!LO:SIC:o:s:=:v:custos bb	!
!	!	!LO:PB;g=original	!
=22	=22	=22	=22
8r	.	16bb-\LL	p
.	.	16aa\J	.
8A\L 8c\ 8f\	.	[8eee-X\J	.
8A\ 8c\ 8f\	.	(32eee-\LLL]	.
.	.	32ddd'\	.
.	.	32ccc'\	.
.	.	32bb-'\	.
8A\J 8c\ 8f\	.	32aa'\	.
.	.	32gg'\	.
.	.	32ff'\	.
.	.	32ee-X'\JJJ	.
8B-\L 8c\ 8f\	.	16.ee-T\LL)	.
.	.	64dd\LL	.
.	.	64ee-\JJJ	.
8d\J 8f\	.	8dd\J	.
=23	=23	=23	=23
4FF#X/ 4AA/ 4D/ 4F#X/	.	32r	f
.	.	32A/LLL	.
.	.	32G#X/	.
.	.	32A/	.
.	.	32d/	.
.	.	32A/	.
.	.	32f#X/	.
.	.	32d/JJJ	.
4r	.	32a\LLL	.
.	.	32f#\	.
.	.	32dd\	.
.	.	32a\	.
.	.	32ff#X\	.
.	.	32dd\	.
.	.	32aa\	.
.	.	32ff#\JJJ	.
4r	.	(16aa\LL 16ccc\	>
.	.	16ccc\ 16eee-X\	.
.	.	16bb-\ 16ddd\	.
.	.	16aa\JJ) 16ccc\	.
=24	=24	=24	=24
4GG/ 4G/	.	(16gg\LL 16bb-\	p
.	.	16bb-\ 16ddd\	.
.	.	16aa\ 16ccc\	.
.	.	16gg\JJ) 16bb-\	.
4GG#X/ 4G#X/	.	16r	.
.	.	(16aa\LL 16fff\	.
.	.	16gg\ 16eee\	.
.	.	16ff\JJ) 16ddd\	.
4AA/ 4A/	.	(8ff\L 8ddd\	.
.	.	8ee\J) 8ccc#X\	.
!	!	!LO:TX:a:t=[dal segno]	!
!!LO:PB:g=original
*C	*	*C	*
=25||	=25||	=25||	=25||
!	!	!LO:TX:rj:a:t=Trio	!
4D\ 4F\ 4A\ 4d\	.	16r	f
.	.	(8qg#X/	.
.	.	16a\LL)	.
.	.	(8qcc#X/	.
.	.	16dd\)	.
.	.	(8qqee/	.
.	.	16ff\JJ)	.
!	!LO:DY:a	!	!
8r	ff	4aa\	.
8d\L 8f\	.	.	.
8d\ 8f\	.	(32gg#X\LLL	.
.	.	32aa\	.
.	.	32bb-\	.
.	.	32aa\	.
8d\J 8f\	.	32ggn\	.
.	.	32ff\	.
.	.	32ee\	.
.	.	32dd\JJJ)	.
*clefG2	*	*	*
=26-	=26	=26	=26
.	.	(>8qdd/	ff
2A/ 2c#X/ 2e/ 2g/	.	32cc#X\LLL	.
.	.	32bn\	.
.	.	32cc#\)	.
.	.	32a`\JJJ	.
.	.	(>8qff/	.
.	.	32ee\LLL	.
.	.	32dd#X\	.
.	.	32ee\)	.
.	.	32cc#`\JJJ	.
.	.	(>8qaa/	.
.	.	32gg\LLL	.
.	.	32ff#X\	.
.	.	32gg\)	.
.	.	32ee`\JJJ	.
.	.	(>8qccc/	.
.	.	32bb-\LLL	.
.	.	32aa\	.
.	.	32bb-\)	.
.	.	32aa`\JJJ	.
4r	.	(8.gg\L	>
.	.	16ee'\Jk)	.
=27	=27	=27	=27
*clefF4	*	*	*
!	!LO:DY:rj:a	!	!LO:DY:b
8AA\L 8A\	ff	16r	f
.	.	(32qqb-/LLL	.
.	.	32qqa/	.
.	.	32qqg/JJJ	.
.	.	16a/S)	.
8E\ 8c#X\ 8e\	.	16r	.
.	.	16aS/	.
8F\ 8d\ 8f\	.	16r	.
.	.	16aS/	.
8G\ 8e\ 8g\	.	16r	.
.	.	16aS/	.
8F\ 8d\ 8f\	.	16r	.
.	.	16aS/	.
8E\J 8c#X\ 8e\	.	16r	.
.	.	16aS/	.
=28	=28	=28	=28
8D\ 8F\ 8A\	.	32f/LLL	.
.	.	(32d/	.
.	.	32d#X/	.
.	.	32e/	.
8r	.	32f/	.
.	.	32f#X/	.
.	.	32g/	.
.	.	32g#X/JJJ	.
4r	.	32a/LLL	.
.	.	32b-/	.
.	.	32bn/	.
.	.	32cc/	.
.	.	32cc#X/	.
.	.	32dd/	.
.	.	32dd#X/	.
.	.	32ee/JJJ)	.
8A\L	.	(8dd#\L 8ff\	.
!LO:TX:t=P:problem:mixed beam	!	!	!
8AA/J	.	8cc#X\J) 8ee\	.
!!LO:LB:g=original
=29	=29	=29	=29
!	!	!LO:TX:a:i:t=dol	!
16AA\LL	.	32bb-\LLL	p
.	.	32aa\	.
16A\	.	32gg\	.
.	.	32aa\JJ	.
16C#X\	.	8.gg\J	.
16A\JJ	.	.	.
16E\LL	.	.	.
16A\	.	(32ff\LLL	.
.	.	32ee\J)	.
16G\	.	(16dd\	.
16A\JJ	.	16cc#X\JJ)	.
.	.	(>8qee/	.
16F\LL	.	32dd\LLL	.
.	.	32cc#X\	.
16A\	.	32dd\	.
.	.	32ff\JJ)	.
16D\	.	8aa`\J	.
16A\JJ	.	.	.
=30	=30	=30	=30
16AA\LL	.	(32bb-\LLL	.
.	.	32aa\	.
16A\	.	32gg\	.
.	.	32aa\JJ)	.
16C#X\	.	8.gg\J	.
16A\JJ	.	.	.
16E\LL	.	.	.
16A\	.	(32ff\LLL	.
.	.	32ee\J)	.
16G\	.	16dd`\	.
16A\JJ	.	16cc#X`\JJ	.
16F\LL	.	(32dd\LLL	.
.	.	32cc#X\	.
16A\	.	32dd\	.
.	.	32ff\JJ)	.
16D\	.	8aa`\J	.
16A\JJ	.	.	.
=31	=31	=31	=31
8.D\L 8.d\	.	(32dd\LLL	f
.	.	32cc#X\	.
.	.	32dd\	.
.	.	32ff#X\JJ)	.
.	.	8aa\J	.
16C\Jk 16c\	.	.	.
8.BB-\L 8.B-\	.	(32dd\LLL	.
.	.	32cc#X\	.
.	.	32dd\	.
.	.	32gg\JJ)	.
.	.	8bb-`\J	.
16GG\Jk 16G\	.	.	.
8.FF#X/L 8.F#X/	.	(32dd\LLL	.
.	.	32cc#X\	.
.	.	32dd\	.
.	.	32aa\JJ)	.
.	.	8ccc`\J	.
16DD/Jk 16D/	.	.	.
=32	=32	=32	=32
8.GG/L 8.G/	.	(32dd\LLL	.
.	.	32cc#X\	.
.	.	32dd\	.
.	.	32bb-\JJ)	.
.	.	8ddd`\J	.
16GG/Jk 16G/	.	.	.
4GG#X;/ 4BBn/ 4D/ 4G#X/	.	4dd;\ 4ff\ 4bbn\ 4ddd\	.
4r;	.	4r;	.
=33	=33	=33	=33
4AA/ 4A/	.	(64ccc#X\LLLL	.
.	.	64ddd\J	.
.	.	32eee\J)	.
.	.	16aa`\JJ	.
.	.	(64gg#X\LLLL	.
.	.	64aa\J	.
.	.	32ddd\J)	.
.	.	16ff`\JJ	.
4r	.	(64ee\LLLL	.
.	.	64ff\J	.
.	.	32aa\J)	.
.	.	16dd`\JJ	.
.	.	(64cc#X\LLLL	.
.	.	64dd\J	.
.	.	32ff\J)	.
.	.	16a`\JJ	.
4r	.	(64g#X\LLLL	.
.	.	64a\J	.
.	.	32dd\J)	.
.	.	16a`\JJ	.
.	.	(64e/LLLL	.
.	.	64g#/J	.
.	.	32a/J)	.
.	.	16d`/JJ	.
!!LO:LB:g=original
=34	=34	=34	=34
8r	.	16c#X/LL	.
.	.	16d/	.
8AA/L	.	16A/ 16f/	.
.	.	16G/JJ 16e/	.
8D/	.	4G/ 4c#/ 4e/	.
8AA/J	.	.	.
8DD/	.	8F</ 8d/	.
8r	.	8r	.
=35||	=35||	=35||	=35||
16AAA/LL	.	8r	p
16AA/	.	.	.
16AAA/	.	8A/L	.
16AA/JJ	.	.	.
*rep	*	*	*
16AAA/LL	.	8G</ 8B-/	.
16AA/	.	.	.
16AAA/	.	8E</ 8c#X/	.
16AA/JJ	.	.	.
*Xrep	*	*	*
*rep	*	*	*
16AAA/LL	.	8F</ 8d/	.
16AA/	.	.	.
16AAA/	.	8c#/J 8e/	.
16AA/JJ	.	.	.
*Xrep	*	*	*
=36	=36	=36	=36
16AAA/LL	.	8d/L 8f/	<
16AA/	.	.	.
16AAA/	.	8f/ 8a/	.
16AA/JJ	.	.	.
*rep	*	*	*
16AAA/LL	.	8g/ 8b-/	.
16AA/	.	.	.
16AAA/	.	8e/ 8a/ 8cc#X/	.
16AA/JJ	.	.	.
*Xrep	*	*	*
*rep	*	*	*
16AAA/LL	.	(8g/ 8b-/ 8ee/	.
16AA/	.	.	.
16AAA/	.	8f/J) 8a/ 8dd/	.
16AA/JJ	.	.	.
*Xrep	*	*	*
=37	=37	=37	=37
!	!	!	!LO:DY:a
16AAA/LL	f	8r	f
16AA/	.	.	.
16AAA/	.	8a\L 8cc#X\ 8ee\ 8aa\	.
16AA/JJ	.	.	.
16BBBn/LL	.	8bn\ 8dd\ 8ee\ 8gg#X\	.
16BBn/	.	.	.
16CC#X/	.	8a\ 8cc#X\ 8ee\ 8ggn\	.
16C#X/JJ	.	.	.
16DD/LL	.	8a\ 8dd\ 8ff\	.
16D/	.	.	.
16FF#X/	.	8d\J 8a\ 8dd\	.
16F#X/JJ	.	.	.
=38	=38	=38	=38
16GG\LL	.	8e-X/L 8b-/ 8ee-X/	.
16G\	.	.	.
16AA\	.	8f#X/ 8cc/ 8ff#X/	.
16A\JJ	.	.	.
16BB-\LL	.	8g/ 8cc/ 8gg/	.
16B-\	.	.	.
16FF#X\	.	8a/J 8dd/ 8aa/	.
16F#X\JJ	.	.	.
*	*	*^	*
4GG/ 4G/	.	(<8aa/L 8ccc/	4dd\	.
.	.	8gg/J) 8bb-/	.	.
*	*	*v	*v	*
=39	=39	=39	=39
8GG/ 8G/	.	16gg\LL 16bb-\	fp
.	.	16ggS\ 16bb-\	.
8r	.	16bb-`\ 16ddd\	.
.	.	16aa`\JJ 16ccc\	.
4r	.	8.gg\L 8.bb-\	.
.	.	16ff\Jk 16aa\	.
.	.	8qff/ 8qaa/	.
4r	.	4ee\ 4gg\	.
=40	=40	=40	=40
8GG/ 8G/	.	16ee\LL 16gg\	fp
.	.	16ee\ 16gg\	.
8r	.	16gg\ 16bb-\	.
.	.	16ff\JJ 16aa\	.
4r	.	8.ee\L 8.gg\	.
.	.	16dd\Jk 16ff\	.
.	.	8qqdd/ 8qqff/	.
4r	.	4cc#X\ 4ee\	.
!!LO:LB:g=original
=41	=41	=41	=41
*clefG2	*	*	*
*^	*	*	*
!	!	!	!LO:TX:b:t=creſcendo:dur=6q:problem:text with extention line	!
(8f/L	2.A\	.	(16g#X/LL	.
.	.	.	16a/)	.
!	!	!	!LO:TX:t=P:problem:mixed beam	!
8g/	.	.	16bb-`<\	.
.	.	.	16b-`/JJ	.
8e/	.	.	(>16f#X/LL	.
.	.	.	16g#/)	.
!	!	!	!LO:TX:t=P:problem:mixed beam	!
8f/	.	.	16aa`<\	.
.	.	.	16a`/JJ	.
8d#X/	.	.	(>16e/LL	.
.	.	.	16f#X/)	.
!	!	!	!LO:TX:t=P:problem:mixed beam	!
8e/J)	.	.	16ggn`\	.
.	.	.	16g#`/JJ	.
=42	=42	=42	=42	=42
(8c#X/L	2.A\	.	(>16d#X/LL	.
.	.	.	16e/)	.
!	!	!	!LO:TX:t=P:problem:mixed beam	!
8d/	.	.	16ff`\	.
.	.	.	16f`/JJ	.
8Bn/	.	.	(>16c#X/LL	.
.	.	.	16d#/)	.
!	!	!	!LO:TX:t=P:problem:mixed beam	!
8c#X/	.	.	16ee`\	.
.	.	.	16e`/JJ	.
8A/	.	.	(>16Bn/LL	.
.	.	.	16c#X/)	.
!	!	!	!LO:TX:t=P:problem:mixed beam	!
8Bn/J)	.	.	16dd`\	.
.	.	.	16d#`/JJ	.
*v	*v	*	*	*
*clefF4	*	*	*
=43	=43	=43	=43
2.G#X\ 2.Bn\	.	16r	fp
.	.	(16d/LL	.
.	.	16dd/	.
.	.	16d/JJ	.
.	.	16ee/LL	.
.	.	16e/	.
.	.	16ff/	.
.	.	16f/JJ	.
.	.	16ee/LL	.
.	.	16e/	.
.	.	16dd/	.
.	.	16d/JJ)	.
=44	=44	=44	=44
16r	.	((2e/ 2g/ 2dd/	f
16AA/LL	.	.	.
16C#X/	.	.	.
(16E/JJ	.	.	.
16G\LL	.	.	.
16B-\	.	.	.
16A\	.	.	.
16G#X\JJ	.	.	.
16A\LL)	.	8e/)) 8g/ 8cc#X/	.
16Gn'\	.	.	.
16F'\	.	8r	.
16E'\JJ	.	.	.
!	!	!LO:TX:a:t=Da Capo Trio	!
==	==	==	==
*-	*-	*-	*-
!!!system-decoration: [s1,s2]
!!!RDF**kern: > = above
!!!RDF**kern: < = below
!!!RDF**dynam: > = decreſc
!!!RDF**dynam: < = creſc
!!!EED: Leszek Kubiak
!!!EST: 2020-11-27
!!!ENC: Marta Chmielewska
!!!END: 2020-06-09
